svgs/sharp-regular/kite.svg

<svg xmlns="http://www.w3.org/2000/svg" viewBox="0 0 640 512"><!--! Font Awesome Pro 6.6.0 by @fontawesome - https://fontawesome.com License - https://fontawesome.com/license (Commercial License) Copyright 2024 Fonticons, Inc. --><path d="M285.4 354.6s0 0 0 0L480 160 592 272l0 11.3L285.4 354.6zM480 160L368 48l224 0L480 160zM615.2 327.2l24.8-5.8 0-25.4 0-248 0-16 0-32L608 0 592 0 344 0 318.6 0l-5.8 24.8-79.5 342-.5 2-1.4 5.8-.4 .4-89 89L120 464l0-107.3-24-10-24 10L72 488l0 24 24 0 56 0 9.9 0 7-7 96-96 .4-.4 5.8-1.4 2-.5 342-79.5zM0 128l0 48 24 0 48 0 0 110L0 256l0 96 72-30 24-10 24 10 72 30 0-96-72 30 0-134 0-24-24 0-72 0L0 128z"/></svg>

<svg xmlns="http://www.w3.org/2000/svg" viewBox="0 0 640 512"><!--! Font Awesome Pro 6.4.0 by @fontawesome - https://fontawesome.com License - https://fontawesome.com/license (Commercial License) Copyright 2023 Fonticons, Inc. --><path d="M285.4 354.6l0 0L480 160 592 272v11.3L285.4 354.6zM480 160L368 48H592L480 160zM615.2 327.2l24.8-5.8V296 48 32 0H608 592 344 318.6l-5.8 24.8-79.5 342-.5 2-1.4 5.8-.4 .4-89 89H120V356.7l-24-10-24 10V488v24H96h56 9.9l7-7 96-96 .4-.4 5.8-1.4 2-.5 342-79.5zM0 128v48H24 72V286L0 256v96l72-30 24-10 24 10 72 30V256l-72 30V152 128H96 24 0z"/></svg>
